packages/icons/raw/imported/SoftwareDownload.svg

<svg width="32" height="32" viewBox="0 0 32 32" fill="none" xmlns="http://www.w3.org/2000/svg">
<path d="M16.5 15.2692C16.5 14.9931 16.2761 14.7692 16 14.7692C15.7239 14.7692 15.5 14.9931 15.5 15.2692H16.5ZM16 25.5L15.6464 25.8536C15.8417 26.0488 16.1583 26.0488 16.3536 25.8536L16 25.5ZM20.0074 22.1997C20.2027 22.0044 20.2027 21.6879 20.0074 21.4926C19.8121 21.2973 19.4956 21.2973 19.3003 21.4926L20.0074 22.1997ZM12.6997 21.4926C12.5044 21.2973 12.1879 21.2973 11.9926 21.4926C11.7973 21.6879 11.7973 22.0044 11.9926 22.1997L12.6997 21.4926ZM10.9396 17.9585C11.214 17.9282 11.4119 17.681 11.3816 17.4066C11.3512 17.1321 11.1041 16.9342 10.8297 16.9646L10.9396 17.9585ZM9.78846 10.8846L9.78972 10.3846H9.78846V10.8846ZM9.79729 10.8846L9.79603 11.3846L10.1506 11.3855L10.2687 11.0513L9.79729 10.8846ZM21.8934 10.1541L21.4457 10.3766L21.5816 10.6502L21.8871 10.6541L21.8934 10.1541ZM20.3846 16.9615C20.1085 16.9615 19.8846 17.1854 19.8846 17.4615C19.8846 17.7377 20.1085 17.9615 20.3846 17.9615V16.9615ZM15.5 15.2692L15.5 25.5H16.5L16.5 15.2692H15.5ZM19.3003 21.4926L15.6464 25.1464L16.3536 25.8536L20.0074 22.1997L19.3003 21.4926ZM16.3536 25.1464L12.6997 21.4926L11.9926 22.1997L15.6464 25.8536L16.3536 25.1464ZM10.8297 16.9646C10.8316 16.9643 10.7867 16.9665 10.6769 16.9671C10.5815 16.9677 10.4624 16.9674 10.3413 16.9665C10.1061 16.9649 9.85118 16.9615 9.78846 16.9615V17.9615C9.84924 17.9615 10.0824 17.9648 10.3345 17.9665C10.4569 17.9673 10.5812 17.9678 10.6832 17.9671C10.771 17.9666 10.8776 17.9654 10.9396 17.9585L10.8297 16.9646ZM9.78846 16.9615C8.24843 16.9615 7 15.7131 7 14.1731H6C6 16.2654 7.69615 17.9615 9.78846 17.9615V16.9615ZM7 14.1731C7 12.633 8.24843 11.3846 9.78846 11.3846V10.3846C7.69615 10.3846 6 12.0808 6 14.1731H7ZM9.7872 11.3846L9.79603 11.3846L9.79856 10.3846L9.78972 10.3846L9.7872 11.3846ZM10.2687 11.0513C11.1032 8.69033 13.3548 7 16 7V6C12.9179 6 10.2971 7.97003 9.32587 10.718L10.2687 11.0513ZM16 7C18.3854 7 20.4507 8.37432 21.4457 10.3766L22.3412 9.93165C21.1839 7.60246 18.7795 6 16 6V7ZM21.8871 10.6541C23.61 10.6759 25 12.0795 25 13.8077H26C26 11.5315 24.1693 9.68295 21.8998 9.65418L21.8871 10.6541ZM25 13.8077C25 15.5495 23.588 16.9615 21.8462 16.9615V17.9615C24.1403 17.9615 26 16.1018 26 13.8077H25ZM21.8462 16.9615H20.3846V17.9615H21.8462V16.9615Z" fill="black"/>
</svg>

<svg width="32" height="32" fill="none" xmlns="http://www.w3.org/2000/svg"><path d="M16.5 15.27a.5.5 0 0 0-1 0h1ZM16 25.5l-.354.354a.5.5 0 0 0 .708 0L16 25.5Zm4.007-3.3a.5.5 0 1 0-.707-.707l.707.707Zm-7.307-.707a.5.5 0 1 0-.707.707l.707-.707Zm-1.76-3.534a.5.5 0 0 0-.11-.994l.11.994Zm-1.152-7.074.002-.5h-.002v.5Zm.01 0-.002.5h.355l.118-.334-.472-.166Zm12.095-.73-.447.222.136.273.305.004.006-.5Zm-1.508 6.807a.5.5 0 0 0 0 1v-1ZM15.5 15.269V25.5h1V15.27h-1Zm3.8 6.224-3.654 3.653.708.708 3.653-3.654-.707-.707Zm-2.946 3.653L12.7 21.493l-.707.707 3.653 3.654.708-.708Zm-5.524-8.181a25.734 25.734 0 0 1-.488.002l-.554-.005v1l.546.005h.35c.087 0 .194-.002.256-.008l-.11-.994Zm-1.042-.003A2.788 2.788 0 0 1 7 14.173H6a3.788 3.788 0 0 0 3.788 3.789v-1ZM7 14.173a2.788 2.788 0 0 1 2.788-2.788v-1A3.788 3.788 0 0 0 6 14.173h1Zm2.787-2.788h.009l.003-1h-.01l-.002 1Zm.482-.334A6.08 6.08 0 0 1 16 7V6a7.08 7.08 0 0 0-6.674 4.718l.943.333ZM16 7a6.077 6.077 0 0 1 5.446 3.377l.895-.445A7.077 7.077 0 0 0 16 6v1Zm5.887 3.654A3.154 3.154 0 0 1 25 13.808h1a4.154 4.154 0 0 0-4.1-4.154l-.013 1ZM25 13.808a3.154 3.154 0 0 1-3.154 3.154v1A4.154 4.154 0 0 0 26 13.808h-1Zm-3.154 3.154h-1.461v1h1.461v-1Z" fill="#000"/></svg>
